X: 7984
T:Untitled reel
R:Reel
O:Ireland
O:England
M:4/4
K:BDor
B3d fB df| af ed cB Ac\
|1 B/2B/2B bB aB gB| e2 ef ed cA|
:|2 af f/2f/2f df af| ed cA B3 c :: \
dB FB df ed| c/2B/2A ce ae cA|
|1\
BF ~F2 GB dB|cB Ac B3c:|2\
df f/2f/2f af f/2f/2f| ed cA B3:|
